X:1
T: Jackson's Bottle of Claret
C:
R:Jig
Q:180
K:G
M:6/8
L:1/16
D2|G4G2 A3GA2|B4g2 g2d2B2|c4A2 B2G2E2|G3AG2 G2E2D2|G4G2 A3GA2|B4g2 g2d2B2|c4A2 B2G2E2|G3AG2 G4D2|
G4G2 A3GA2|B4g2 g2d2B2|c4A2 B2G2E2|G3AG2 G2E2D2|G4G2 A3GA2|B4g2 g2d2B2|c4A2 B2G2E2|G3AG2 G4d2|
g2f2g2 e2f2g2|f2d2B2 B6|g2f2g2 e2f2g2|a2f2d2 d4f2|g2f2e2 a2g2f2|g2f2e2 e2d2B2|c2B2A2 B2G2E2|G3AG2 G4d2|
g2f2g2 e2f2g2|f2d2B2 B6|g2f2g2 e2f2g2|a2f2d2 d4f2|g2f2e2 a2g2f2|g2f2e2 e2d2B2|c2B2A2 B2G2E2|G3AG2 G4||
